client/src/asserts/icons/order-status_ok.svg

<svg width="52" height="51" viewBox="0 0 52 51" fill="none" xmlns="http://www.w3.org/2000/svg">
<rect x="0.5" width="51" height="51" rx="25.5" fill="#00A896"/>
<path fill-rule="evenodd" clip-rule="evenodd" d="M40.6715 15.2035C41.0819 15.6141 41.3125 16.1709 41.3125 16.7515C41.3125 17.3321 41.0819 17.8888 40.6715 18.2994L23.1558 35.8151C22.7452 36.2255 22.1884 36.4561 21.6079 36.4561C21.0273 36.4561 20.4705 36.2255 20.0599 35.8151L11.3021 27.0573C10.9033 26.6443 10.6826 26.0913 10.6876 25.5172C10.6926 24.9431 10.9228 24.394 11.3288 23.988C11.7347 23.5821 12.2839 23.3518 12.8579 23.3468C13.432 23.3419 13.9851 23.5625 14.398 23.9614L21.6079 31.1712L37.5756 15.2035C37.9862 14.7931 38.5429 14.5625 39.1235 14.5625C39.7041 14.5625 40.2609 14.7931 40.6715 15.2035Z" fill="white"/>
</svg>

<svg width="52" height="51" viewBox="0 0 52 51" xmlns="http://www.w3.org/2000/svg" fill="none"><rect x=".5" width="51" height="51" rx="25.5" fill="#00A896"/><path fill-rule="evenodd" clip-rule="evenodd" d="M40.672 15.204c.41.411.641.967.641 1.548 0 .581-.231 1.137-.641 1.548l-17.516 17.516c-.411.41-.967.641-1.548.641-.581 0-1.137-.231-1.548-.641l-8.758-8.758c-.399-.413-.619-.966-.614-1.54.005-.574.235-1.123.641-1.529.406-.406.955-.636 1.529-.641.574-.005 1.127.216 1.54.615l7.21 7.21 15.968-15.968c.411-.41.967-.641 1.548-.641.581 0 1.137.231 1.548.641z" fill="#fff"/></svg>
